X:18
T:Mrs. Johnston of Woodhills Reel
C:Robert Petrie
S:Petrie's Collection of Strathspey Reels and Country Dances &c., 1790
Z:Steve Wyrick , 3/6/04
N:Petrie's First Collection, page 9
L:1/8
M:C|
R:Reel
K:Bb
d|TB2    FD    FGBg   |f(dTcB) cGGc |TB2    FD  FGBg| fdcd  B/B/B B :|
g|(fg/a/ b).g .f(TdcB)|ecdB   Tc>BGg|(fg/a/ b)f gbfd|Tc>Bcd B/B/B Bg |
   fg/a/ bf    gbfd   |ecdB   Tc>BGc| B(GTFD)   FGBg| fdcd  B/B/B B |]
